src/4-icons/map.svg

<svg width="260" height="260" viewBox="0 0 260 260" fill="none" xmlns="http://www.w3.org/2000/svg">
<g opacity="0.9">
<path fill-rule="evenodd" clip-rule="evenodd" d="M140.868 103.141C143.78 100.307 147.784 98.5657 152.178 98.5657C156.573 98.5657 160.603 100.281 163.488 103.141C166.401 105.976 168.246 109.954 168.246 114.347C168.246 118.742 166.4 122.72 163.488 125.554C160.577 128.387 156.573 130.129 152.178 130.129C147.81 130.129 143.781 128.388 140.868 125.554C137.955 122.719 136.11 118.741 136.11 114.347C136.11 109.953 137.957 105.975 140.868 103.141ZM152.204 119.73C153.816 119.704 155.22 119.08 156.26 118.092C157.274 117.078 157.872 115.778 157.872 114.348C157.872 112.893 157.275 111.618 156.26 110.605C155.245 109.591 153.815 108.967 152.204 108.967C150.591 108.993 149.187 109.617 148.147 110.605C147.134 111.593 146.535 112.893 146.535 114.348C146.535 115.804 147.133 117.078 148.147 118.092C149.162 119.106 150.565 119.73 152.204 119.73Z" fill="black"/>
<path fill-rule="evenodd" clip-rule="evenodd" d="M201.084 42.6403C202.384 42.6403 203.71 42.9003 204.932 43.4467L204.931 43.4437C206.153 43.9891 207.271 44.8219 208.129 45.8355C209.871 47.8637 210.599 50.4637 210.599 53.0119V182.414C210.574 185.845 209.43 188.965 207.714 191.695C205.998 194.399 203.658 196.765 200.564 198.247L161.745 216.525C158.807 217.877 155.662 218.372 152.464 218.397C149.292 218.397 146.12 217.904 143.208 216.552L104.235 198.274C103.273 197.806 101.271 197.365 99.3211 197.39C97.3975 197.365 95.4475 197.78 94.4857 198.248L55.5121 216.293C53.9775 217.02 52.3139 217.436 50.5975 217.436C49.2975 217.436 47.9711 217.178 46.7493 216.631C45.5275 216.085 44.4093 215.254 43.5511 214.239C41.7829 212.186 41.0547 209.586 41.0547 207.038V77.6093C41.0811 74.1775 42.2247 71.0575 43.9411 68.3275C45.6829 65.6239 48.0483 63.2585 51.1429 61.8021L90.0911 43.7321C93.0029 42.4057 96.1493 41.9385 99.3211 41.9121C102.519 41.9375 105.691 42.4321 108.629 43.7839L147.525 62.0103C148.486 62.5039 150.436 62.9203 152.386 62.8939C154.336 62.8939 156.286 62.4785 157.248 62.0103L196.144 43.8103C197.678 43.0821 199.342 42.6403 201.084 42.6403ZM173.368 121.759C173.473 121.446 173.628 120.979 173.785 120.38H173.786C174.098 119.184 174.409 117.442 174.409 115.519C174.409 109.669 171.991 104.364 168.013 100.464C164.036 96.5903 158.575 94.1721 152.491 94.1721C146.408 94.1721 140.947 96.5639 136.969 100.464C132.991 104.364 130.573 109.643 130.573 115.519C130.573 119.782 130.988 121.706 131.118 122.2C133.094 125.814 136.396 131.534 138.528 134.992L146.823 148.539C147.681 149.929 148.669 151.541 149.657 153.154C150.645 154.766 151.633 156.378 152.491 157.769C153.349 156.378 154.344 154.766 155.338 153.154C156.333 151.541 157.327 149.929 158.186 148.539L158.16 148.564L166.376 135.226L166.401 135.2C168.481 131.897 171.705 125.684 173.265 122.096V122.07L173.368 121.759ZM51.4283 206.726L90.0901 188.812L90.0911 188.811C91.4947 188.188 92.9247 187.745 94.4065 187.459V53.2475L55.5111 71.2921C54.7311 71.6303 53.5347 72.6449 52.7029 73.9703C51.8447 75.2703 51.4019 76.7775 51.4283 77.6357V206.726ZM104.806 187.616C106.106 187.902 107.38 188.292 108.628 188.864L108.629 188.863L146.798 206.751V167.647C146.121 166.971 145.497 166.269 145.003 165.489C144.338 164.401 143.415 162.897 142.404 161.248C140.926 158.839 139.259 156.121 137.931 153.945L129.741 140.58C127.426 136.81 123.916 130.753 121.785 126.878C121.135 125.631 120.172 123.03 120.146 115.516C120.146 106.728 123.813 98.7465 129.663 93.0265C134.238 88.5283 140.193 85.4347 146.823 84.2647V72.6429C145.575 72.3565 144.301 71.9665 143.105 71.4211L104.806 53.4811V187.616ZM196.144 188.838C196.924 188.499 198.12 187.459 198.952 186.134C199.784 184.808 200.225 183.301 200.2 182.443V53.4049L161.668 71.3967C160.238 72.0721 158.756 72.5149 157.248 72.8003V84.1103C164.217 85.1239 170.509 88.3221 175.293 93.0021C181.143 98.7221 184.808 106.704 184.808 115.492C184.783 121.338 183.078 125.479 182.806 126.141C182.795 126.167 182.786 126.189 182.78 126.204C180.908 130.493 177.684 136.681 175.24 140.659L167.025 153.998C165.694 156.163 164.024 158.871 162.539 161.279C161.527 162.919 160.601 164.42 159.926 165.516C159.25 166.633 158.34 167.596 157.248 168.401V207.141C157.275 207.116 157.275 207.116 157.3 207.116L196.144 188.838Z" fill="black"/>
</g>
</svg>

<svg width="260" height="260" fill="none" xmlns="http://www.w3.org/2000/svg"><g opacity=".9" fill-rule="evenodd" clip-rule="evenodd" fill="#000"><path d="M140.868 103.141a16.18 16.18 0 0 1 11.31-4.575c4.395 0 8.425 1.715 11.31 4.575 2.913 2.835 4.758 6.813 4.758 11.206 0 4.395-1.846 8.373-4.758 11.207a16.18 16.18 0 0 1-11.31 4.575 16.228 16.228 0 0 1-11.31-4.575c-2.913-2.835-4.758-6.813-4.758-11.207 0-4.394 1.847-8.372 4.758-11.206Zm11.336 16.589a5.969 5.969 0 0 0 4.056-1.638c1.014-1.014 1.612-2.314 1.612-3.744 0-1.455-.597-2.73-1.612-3.743-1.015-1.014-2.445-1.638-4.056-1.638a5.97 5.97 0 0 0-4.057 1.638c-1.013.988-1.612 2.288-1.612 3.743 0 1.456.598 2.73 1.612 3.744 1.015 1.014 2.418 1.638 4.057 1.638Z"/><path d="M201.084 42.64c1.3 0 2.626.26 3.848.807l-.001-.003a9.076 9.076 0 0 1 3.198 2.392c1.742 2.028 2.47 4.628 2.47 7.176v129.402c-.025 3.431-1.169 6.551-2.885 9.281-1.716 2.704-4.056 5.07-7.15 6.552l-38.819 18.278c-2.938 1.352-6.083 1.847-9.281 1.872-3.172 0-6.344-.493-9.256-1.845l-38.973-18.278c-.962-.468-2.964-.909-4.914-.884-1.924-.025-3.873.39-4.835.858l-38.974 18.045c-1.535.727-3.198 1.143-4.915 1.143-1.3 0-2.626-.258-3.848-.805a9.072 9.072 0 0 1-3.198-2.392c-1.768-2.053-2.496-4.653-2.496-7.201V77.609c.026-3.431 1.17-6.551 2.886-9.281 1.742-2.704 4.107-5.07 7.202-6.526l38.948-18.07c2.912-1.326 6.058-1.794 9.23-1.82 3.198.026 6.37.52 9.308 1.872l38.896 18.226c.961.494 2.911.91 4.861.884 1.95 0 3.9-.416 4.862-.884l38.896-18.2c1.534-.728 3.198-1.17 4.94-1.17Zm-27.716 79.119c.105-.313.26-.78.417-1.379h.001a19.78 19.78 0 0 0 .623-4.861c0-5.85-2.418-11.155-6.396-15.055a22.153 22.153 0 0 0-15.522-6.292c-6.083 0-11.544 2.392-15.522 6.292-3.978 3.9-6.396 9.179-6.396 15.055 0 4.263.415 6.187.545 6.681 1.976 3.614 5.278 9.334 7.41 12.792l8.295 13.547c.858 1.39 1.846 3.002 2.834 4.615a2005.78 2005.78 0 0 0 2.834 4.615l2.847-4.615c.995-1.613 1.989-3.225 2.848-4.615l-.026.025 8.216-13.338.025-.026c2.08-3.303 5.304-9.516 6.864-13.104v-.026l.103-.311Zm-121.94 84.967 38.662-17.914.001-.001a19.825 19.825 0 0 1 4.316-1.352V53.247L55.51 71.293c-.78.338-1.976 1.353-2.808 2.678-.858 1.3-1.301 2.808-1.275 3.666v129.09Zm53.378-19.11c1.3.286 2.574.676 3.822 1.248l.001-.001 38.169 17.888v-39.104c-.677-.676-1.301-1.378-1.795-2.158-.665-1.088-1.588-2.592-2.599-4.241a3930.085 3930.085 0 0 1-4.473-7.303l-8.19-13.365c-2.315-3.77-5.825-9.827-7.956-13.702-.65-1.247-1.613-3.848-1.639-11.362 0-8.788 3.667-16.77 9.517-22.49 4.575-4.498 10.53-7.591 17.16-8.761V72.643c-1.248-.287-2.522-.677-3.718-1.222l-38.299-17.94v134.135Zm91.338 1.222c.78-.339 1.976-1.379 2.808-2.704.832-1.326 1.273-2.833 1.248-3.691V53.405l-38.532 17.992c-1.43.675-2.912 1.118-4.42 1.403v11.31c6.969 1.014 13.261 4.212 18.045 8.892 5.85 5.72 9.515 13.702 9.515 22.49-.025 5.846-1.73 9.987-2.002 10.649l-.026.063c-1.872 4.289-5.096 10.477-7.54 14.455l-8.215 13.339a6683.27 6683.27 0 0 1-4.486 7.281l-2.613 4.237c-.676 1.117-1.586 2.08-2.678 2.885v38.74c.027-.025.027-.025.052-.025l38.844-18.278Z"/></g></svg>
